; HEADER_BLOCK_START
; generated by OrcaSlicer 1.9.0 on 2024-09-18 at 19:27:56
; total layer number: 50
; filament_density: 1.24
; filament_diameter: 1.75
; max_z_height: 10.00
; HEADER_BLOCK_END

; THUMBNAIL_BLOCK_START

;
; THUMBNAIL_BLOCK_END

; THUMBNAIL_BLOCK_START

;
; THUMBNAIL_BLOCK_END

; external perimeters extrusion width = 0.42mm
; perimeters extrusion width = 0.45mm
; infill extrusion width = 0.45mm
; solid infill extrusion width = 0.46mm
; top infill extrusion width = 0.42mm
; first layer extrusion width = 0.46mm

; EXECUTABLE_BLOCK_START
M73 P0 R7
M201 X5000 Y5000 Z500 E5000
M203 X500 Y500 Z30 E100
M204 P5000 R2500 T5000 ; sets acceleration (P, T) and retract acceleration (R), mm/sec^2
M205 X10.00 Y10.00 Z0.40 E5.00 ; sets the jerk limits, mm/sec
;TYPE:Custom
M220 S100 ;Reset Feedrate 
M221 S100 ;Reset Flowrate 
 
M140 S45 ;Set final bed temp 
G28 ;Home 
 
G92 E0 ;Reset Extruder 
G1 Z2.0 F3000 ;Move Z Axis up 
M104 S220 ;Set final nozzle temp 
G1 X-2.1 Y20 Z0.28 F5000.0 ;Move to start position 
M190 S45 ;Wait for bed temp to stabilize 
M109 S220 ;Wait for nozzle temp to stabilize 
G1 X-2.1 Y145.0 Z0.28 F1500.0 E15 ;Draw the first line 
G1 X-2.4 Y145.0 Z0.28 F5000.0 ;Move to side a little 
M73 P1 R7
G1 X-2.4 Y20 Z0.28 F1500.0 E30 ;Draw the second line 
G92 E0  ;Reset Extruder 
G1 E-1.0000 F1800 ;Retract a bit 
M73 P2 R6
G1 Z2.0 F3000 ;Move Z Axis up 
G1 E0.0000 F1800
G90
G21
M83 ; use relative distances for extrusion
; filament start gcode
M106 S0
;LAYER_CHANGE
;Z:0.2
;HEIGHT:0.2
;BEFORE_LAYER_CHANGE
;0.2
G92 E0

G1 E-1.2 F1800
;_SET_FAN_SPEED_CHANGING_LAYER
M204 P500
M205 X8 Y8
; printing object LoadCellSpacer.STL id:2134206714768 copy 0
M204 T500
G1 Z.4 F9000
G1 X124.433 Y77.223
G1 Z.4
G1 Z.2
G1 E1.2 F1800
;TYPE:Inner wall
;WIDTH:0.459999
G1 X124.884 Y77.867 E.02672
G1 X125.315 Y78.644 E.03018
G1 X125.66 Y79.462 E.0302
G1 X125.917 Y80.316 E.03028
G1 X126.08 Y81.178 E.02984
G1 X126.149 Y82.036 E.02925
G1 X126.127 Y82.96 E.03141
G1 X126.009 Y83.837 E.03007
G1 X125.799 Y84.699 E.03015
G1 X125.498 Y85.533 E.03016
G1 X125.109 Y86.332 E.03018
G1 X124.638 Y87.085 E.0302
G1 X124.087 Y87.786 E.03029
G1 X123.475 Y88.415 E.02984
G1 X122.79 Y88.982 E.03023
G1 X122.044 Y89.478 E.03044
G1 X121.259 Y89.886 E.03007
G1 X120.433 Y90.208 E.03015
G1 X119.576 Y90.442 E.03016
G1 X118.7 Y90.583 E.03017
G1 X117.814 Y90.63 E.03015
G1 X116.927 Y90.583 E.03018
G1 X116.051 Y90.442 E.03017
G1 X115.194 Y90.208 E.03017
G1 X114.368 Y89.885 E.03017
G1 X113.58 Y89.476 E.03017
M73 P3 R6
G1 X112.84 Y88.985 E.03017
G1 X112.157 Y88.418 E.03017
G1 X111.537 Y87.782 E.03017
G1 X110.989 Y87.084 E.03017
G1 X110.518 Y86.331 E.03017
G1 X110.13 Y85.533 E.03017
G1 X109.829 Y84.698 E.03017
G1 X109.618 Y83.835 E.03017
G1 X109.5 Y82.955 E.03017
G1 X109.477 Y82.068 E.03018
G1 X109.548 Y81.182 E.03018
G1 X109.712 Y80.309 E.0302
G1 X109.97 Y79.456 E.03028
G1 X110.311 Y78.647 E.02984
G1 X110.743 Y77.87 E.03023
G1 X111.257 Y77.136 E.03044
G1 X111.84 Y76.471 E.03007
G1 X112.491 Y75.869 E.03015
G1 X113.204 Y75.34 E.03016
G1 X113.969 Y74.889 E.03017
G1 X114.777 Y74.522 E.03018
G1 X115.62 Y74.244 E.03018
G1 X116.489 Y74.056 E.0302
G1 X117.375 Y73.961 E.03028
G1 X118.253 Y73.961 E.02984
G1 X119.137 Y74.057 E.03023
G1 X120.013 Y74.245 E.03044
G1 X120.853 Y74.523 E.03007
G1 X121.66 Y74.89 E.03015
G1 X122.425 Y75.34 E.03016
G1 X123.137 Y75.87 E.03017
G1 X123.789 Y76.472 E.03017
G1 X124.374 Y77.14 E.03017
G1 X124.41 Y77.191 E.0021
G1 X124.773 Y76.984 F9000
;TYPE:Outer wall
G1 F1800
G1 X125.238 Y77.645 E.02747
G1 X125.69 Y78.461 E.03169
G1 X126.052 Y79.321 E.03171
G1 X126.322 Y80.217 E.03179
G1 X126.493 Y81.123 E.03135
G1 X126.566 Y82.024 E.03073
G1 X126.58 Y82.524 E.01699
G1 X126.506 Y83.454 E.03172
G1 X126.333 Y84.371 E.03173
G1 X126.063 Y85.265 E.03173
G1 X125.701 Y86.125 E.03172
G1 X125.248 Y86.942 E.03173
G1 X124.712 Y87.706 E.03173
G1 X124.097 Y88.408 E.03173
G1 X123.425 Y89.028 E.03108
G1 X122.662 Y89.598 E.03237
G1 X121.857 Y90.072 E.03172
G1 X121.007 Y90.458 E.03173
G1 X120.121 Y90.751 E.03173
G1 X119.209 Y90.948 E.03173
G1 X118.28 Y91.047 E.03173
G1 X117.347 Y91.047 E.03171
G1 X116.419 Y90.948 E.03173
G1 X115.507 Y90.751 E.03173
G1 X114.62 Y90.458 E.03173
G1 X113.77 Y90.072 E.03173
G1 X112.966 Y89.598 E.03173
G1 X112.217 Y89.041 E.03173
G1 X111.531 Y88.408 E.03173
G1 X110.916 Y87.706 E.03173
G1 X110.38 Y86.942 E.03173
G1 X109.927 Y86.125 E.03173
G1 X109.564 Y85.265 E.03172
G1 X109.295 Y84.371 E.03173
G1 X109.122 Y83.454 E.03173
G1 X109.047 Y82.524 E.03173
G1 X109.072 Y81.59 E.03173
G1 X109.196 Y80.665 E.03173
G1 X109.418 Y79.758 E.03173
G1 X109.734 Y78.88 E.03173
G1 X110.134 Y78.058 E.03108
G1 X110.638 Y77.249 E.03237
G1 X111.214 Y76.515 E.03172
G1 X111.865 Y75.846 E.03173
G1 X112.584 Y75.251 E.03173
G1 X113.362 Y74.735 E.03173
G1 X114.19 Y74.304 E.03173
G1 X115.06 Y73.964 E.03173
G1 X115.96 Y73.719 E.03173
G1 X116.882 Y73.57 E.03173
G1 X117.814 Y73.52 E.03173
G1 X118.727 Y73.569 E.03108
G1 X119.668 Y73.719 E.03237
G1 X120.122 Y73.843 E.01601
G1 X121.004 Y74.135 E.03158
G1 X121.852 Y74.52 E.03165
G1 X122.655 Y74.993 E.03167
G1 X123.403 Y75.549 E.03167
G1 X124.088 Y76.181 E.03168
G1 X124.702 Y76.882 E.03168
G1 X124.75 Y76.951 E.00286
G1 E-.84
;WIPE_START
G1 X125.238 Y77.645 E-.30539
G1 X125.311 Y77.778 E-.05461
;WIPE_END
G1 Z.6 F9000
G1 X124.686 Y77.864
G1 Z.6
G1 Z.2
G1 E1.2 F1800
;TYPE:Bottom surface
;WIDTH:0.463544
G1 F4800
G1 X123.224 Y76.402 E.07085
G1 X122.583 Y75.871 E.02855
G1 X121.874 Y75.4 E.02918
G1 X121.361 Y75.134 E.01982
G1 X124.968 Y78.741 E.17484
G1 X125.182 Y79.181 E.01677
G1 X125.39 Y79.757 E.02102
G1 X120.333 Y74.701 E.24512
G1 X119.514 Y74.476 E.02911
G1 X125.616 Y80.579 E.29582
G1 X125.672 Y80.808 E.00809
G1 X125.738 Y81.295 E.01684
G1 X118.805 Y74.363 E.33603
G1 X118.646 Y74.337 E.00553
M73 P4 R6
G1 X118.159 Y74.311 E.01671
G1 X125.792 Y81.944 E.36998
G1 X125.804 Y82.551 E.02081
G1 X117.559 Y74.307 E.39965
G1 X116.995 Y74.337 E.01938
G1 X125.76 Y83.102 E.42489
G1 X125.74 Y83.351 E.00857
G1 X125.688 Y83.625 E.00956
G1 X116.479 Y74.416 E.44639
G1 X115.981 Y74.513 E.01741
G1 X125.594 Y84.126 E.46598
G1 X125.462 Y84.588 E.01649
G1 X115.513 Y74.64 E.48222
G1 X115.302 Y74.698 E.0075
G1 X115.068 Y74.789 E.00863
G1 X125.32 Y85.042 E.49696
G1 X125.144 Y85.46 E.01556
G1 X114.64 Y74.957 E.50914
G1 X114.238 Y75.149 E.01529
G1 X124.959 Y85.871 E.51971
G1 X124.747 Y86.253 E.015
G1 X113.846 Y75.352 E.52841
G1 X113.481 Y75.582 E.01479
G1 X124.526 Y86.627 E.53541
G1 X124.281 Y86.977 E.01464
G1 X113.123 Y75.819 E.54085
G1 X112.791 Y76.081 E.01452
G1 X124.026 Y87.317 E.54462
G1 X123.749 Y87.634 E.01445
M73 P5 R6
G1 X112.466 Y76.351 E.54693
G1 X112.165 Y76.645 E.01442
G1 X123.463 Y87.943 E.54766
G1 X123.154 Y88.229 E.01443
G1 X111.871 Y76.946 E.54689
G1 X111.601 Y77.271 E.01448
G1 X122.835 Y88.506 E.54455
G1 X122.495 Y88.76 E.01457
G1 X111.34 Y77.605 E.54072
G1 X111.103 Y77.962 E.01471
G1 X122.146 Y89.006 E.53532
G1 X121.772 Y89.227 E.01489
G1 X110.874 Y78.329 E.52824
G1 X110.67 Y78.72 E.01511
G1 X121.388 Y89.438 E.51952
G1 X120.979 Y89.623 E.0154
G1 X110.476 Y79.12 E.50912
G1 X110.312 Y79.552 E.01582
G1 X120.555 Y89.794 E.4965
G1 X120.108 Y89.942 E.01614
G1 X110.155 Y79.989 E.48244
G1 X110.039 Y80.467 E.01687
G1 X119.637 Y90.066 E.46527
M73 P6 R6
G1 X119.148 Y90.172 E.01715
G1 X109.935 Y80.959 E.44657
G1 X109.865 Y81.484 E.01814
G1 X118.617 Y90.235 E.42423
G1 X118.239 Y90.276 E.01302
G1 X118.062 Y90.276 E.00606
G1 X109.832 Y82.045 E.39895
G1 X109.831 Y82.639 E.02034
G1 X117.467 Y90.276 E.37018
G1 X116.811 Y90.214 E.0226
G1 X109.882 Y83.285 E.33584
G1 X110.012 Y84.01 E.02522
G1 X116.089 Y90.087 E.2946
G1 X115.71 Y90.005 E.01331
G1 X115.265 Y89.858 E.01604
G1 X110.24 Y84.833 E.24361
G1 X110.291 Y85.003 E.0061
G1 X110.65 Y85.838 E.03115
G1 X114.258 Y89.446 E.1749
G1 X114.127 Y89.386 E.00496
G1 X113.393 Y88.954 E.02918
G1 X112.71 Y88.446 E.02918
G1 X112.111 Y87.894 E.02791
G1 X110.937 Y86.72 E.05692
; stop printing object LoadCellSpacer.STL id:2134206714768 copy 0
M106 S255
;LAYER_CHANGE
;Z:0.4
;HEIGHT:0.2
;BEFORE_LAYER_CHANGE
;0.4
G92 E0

G1 E-.84 F1800
;WIPE_START
G1 F4800
G1 X111.644 Y87.427 E-.36
;WIPE_END
;_SET_FAN_SPEED_CHANGING_LAYER
M204 P2500
; printing object LoadCellSpacer.STL id:2134206714768 copy 0
M204 T2500
G1 Z.6 F9000
G1 X124.483 Y77.207 Z.6
G1 Z.4
G1 E1.2 F1800
M204 P2000
M205 X10 Y10
;TYPE:Inner wall
;WIDTH:0.449999
G1 F5015
G1 X124.685 Y77.464 E.01084
G1 X125.159 Y78.221 E.02965
G1 X125.55 Y79.025 E.02965
G1 X125.835 Y79.814 E.0278
G1 X126.066 Y80.736 E.03155
G1 X126.127 Y81.19 E.0152
G1 X126.196 Y82.054 E.02873
G1 X126.208 Y82.514 E.01526
G1 X126.137 Y83.405 E.02965
G1 X125.971 Y84.283 E.02965
G1 X125.713 Y85.139 E.02965
G1 X125.365 Y85.962 E.02965
G1 X124.932 Y86.744 E.02965
G1 X124.419 Y87.475 E.02965
G1 X123.83 Y88.148 E.02965
G1 X123.214 Y88.717 E.0278
G1 X122.454 Y89.288 E.03155
G1 X121.686 Y89.741 E.02959
G1 X120.872 Y90.111 E.02965
G1 X120.023 Y90.391 E.02965
G1 X119.15 Y90.58 E.02965
G1 X118.261 Y90.675 E.02966
G1 X117.367 Y90.675 E.02963
G1 X116.478 Y90.58 E.02966
G1 X115.605 Y90.391 E.02965
G1 X114.756 Y90.111 E.02965
G1 X113.942 Y89.741 E.02965
G1 X113.172 Y89.287 E.02965
G1 X112.454 Y88.754 E.02965
G1 X111.798 Y88.148 E.02965
G1 X111.209 Y87.475 E.02965
G1 X110.695 Y86.744 E.02965
G1 X110.262 Y85.962 E.02965
G1 X109.915 Y85.139 E.02965
G1 X109.657 Y84.283 E.02965
G1 X109.491 Y83.405 E.02965
G1 X109.42 Y82.514 E.02965
G1 X109.444 Y81.62 E.02965
G1 X109.562 Y80.734 E.02965
G1 X109.774 Y79.866 E.02965
G1 X110.078 Y79.025 E.02965
G1 X110.444 Y78.271 E.0278
G1 X110.944 Y77.462 E.03155
G1 X111.494 Y76.76 E.02959
G1 X112.118 Y76.12 E.02965
G1 X112.806 Y75.55 E.02965
G1 X113.551 Y75.056 E.02965
G1 X114.344 Y74.643 E.02965
G1 X115.177 Y74.318 E.02965
G1 X116.039 Y74.083 E.02965
G1 X116.921 Y73.941 E.02965
G1 X117.814 Y73.893 E.02965
G1 X118.651 Y73.938 E.0278
G1 X119.591 Y74.083 E.03155
G1 X120.451 Y74.318 E.02959
G1 X121.284 Y74.643 E.02965
G1 X122.077 Y75.056 E.02965
G1 X122.822 Y75.55 E.02965
G1 X123.51 Y76.12 E.02965
G1 X124.133 Y76.76 E.02965
G1 X124.459 Y77.175 E.01749
M205 X8 Y8
G1 X124.792 Y76.964 F9000
M204 P1000
M205 X10 Y10
;TYPE:Outer wall
;WIDTH:0.419999
G1 F3600
G1 X125.007 Y77.238 E.01068
G1 X125.503 Y78.031 E.02875
G1 X125.912 Y78.872 E.02875
G1 X126.21 Y79.699 E.027
G1 X126.451 Y80.662 E.03051
G1 X126.515 Y81.138 E.01476
G1 X126.588 Y82.043 E.0279
G1 X126.6 Y82.524 E.01478
G1 X126.526 Y83.457 E.02875
G1 X126.352 Y84.376 E.02875
G1 X126.082 Y85.272 E.02875
G1 X125.719 Y86.134 E.02875
G1 X125.265 Y86.952 E.02875
G1 X124.727 Y87.718 E.02875
G1 X124.111 Y88.422 E.02875
G1 X123.466 Y89.018 E.027
G1 X122.672 Y89.615 E.03051
G1 X121.867 Y90.09 E.02873
G1 X121.015 Y90.476 E.02875
G1 X120.126 Y90.77 E.02875
G1 X119.212 Y90.968 E.02875
G1 X118.281 Y91.067 E.02876
G1 X117.346 Y91.067 E.02873
G1 X116.416 Y90.968 E.02876
G1 X115.501 Y90.77 E.02875
G1 X114.613 Y90.476 E.02875
G1 X113.761 Y90.09 E.02875
G1 X112.955 Y89.615 E.02875
G1 X112.204 Y89.057 E.02875
M73 P7 R6
G1 X111.516 Y88.422 E.02875
G1 X110.9 Y87.718 E.02875
G1 X110.363 Y86.952 E.02875
G1 X109.909 Y86.134 E.02875
G1 X109.545 Y85.272 E.02875
G1 X109.275 Y84.376 E.02875
G1 X109.102 Y83.457 E.02875
G1 X109.027 Y82.524 E.02875
G1 X109.052 Y81.589 E.02875
G1 X109.176 Y80.661 E.02875
G1 X109.398 Y79.753 E.02875
G1 X109.716 Y78.872 E.02875
G1 X110.1 Y78.082 E.027
G1 X110.622 Y77.237 E.03051
G1 X111.199 Y76.502 E.02873
G1 X111.852 Y75.832 E.02875
G1 X112.572 Y75.234 E.02875
G1 X113.352 Y74.717 E.02875
G1 X114.182 Y74.286 E.02875
G1 X115.053 Y73.945 E.02875
G1 X115.956 Y73.699 E.02875
G1 X116.88 Y73.55 E.02875
G1 X117.814 Y73.5 E.02875
G1 X118.691 Y73.547 E.027
G1 X119.672 Y73.699 E.03051
G1 X120.575 Y73.945 E.02873
G1 X121.446 Y74.286 E.02875
G1 X122.276 Y74.717 E.02875
G1 X123.056 Y75.234 E.02875
G1 X123.776 Y75.832 E.02875
G1 X124.429 Y76.502 E.02875
G1 X124.767 Y76.933 E.01684
G1 E-.84 F1800
;WIPE_START
G1 F3600
G1 X125.007 Y77.238 E-.13953
G1 X125.331 Y77.757 E-.22047
;WIPE_END
M205 X8 Y8
G1 Z.8 F9000
G1 X124.732 Y86.745
G1 Z.8
G1 Z.4
G1 E1.2 F1800
M204 P2500
M205 X10 Y10
;TYPE:Internal solid infill
;WIDTH:0.466034
G1 F5015
G1 X123.527 Y87.95 E.05877
G1 X122.989 Y88.447 E.02523
G1 X122.259 Y88.996 E.0315
G1 X121.524 Y89.429 E.02943
G1 X121.388 Y89.491 E.00514
G1 X125.023 Y85.855 E.17727
G1 X125.382 Y85.019 E.03137
G1 X125.435 Y84.846 E.00626
G1 X120.375 Y89.905 E.2467
G1 X119.931 Y90.052 E.01615
G1 X119.547 Y90.135 E.01354
G1 X125.664 Y84.018 E.29826
G1 X125.794 Y83.29 E.02551
G1 X118.821 Y90.262 E.33997
G1 X118.161 Y90.324 E.02287
G1 X125.846 Y82.639 E.37471
G1 X125.844 Y82.043 E.02058
G1 X117.563 Y90.324 E.40381
G1 X117.386 Y90.324 E.00609
G1 X117.005 Y90.284 E.01321
G1 X125.811 Y81.478 E.42938
G1 X125.74 Y80.95 E.01836
G1 X116.471 Y90.219 E.45198
G1 X115.979 Y90.113 E.01735
G1 X125.634 Y80.458 E.4708
G1 X125.514 Y79.979 E.01701
G1 X115.505 Y89.989 E.48806
G1 X115.055 Y89.84 E.01633
G1 X125.361 Y79.534 E.50249
G1 X125.196 Y79.1 E.016
G1 X114.629 Y89.668 E.51526
G1 X114.218 Y89.481 E.01558
G1 X125.001 Y78.698 E.52578
G1 X124.797 Y78.303 E.01531
G1 X113.831 Y89.269 E.53466
G1 X113.455 Y89.047 E.01507
G1 X124.566 Y77.935 E.54179
G1 X124.327 Y77.576 E.01488
G1 X113.104 Y88.799 E.54726
G1 X112.76 Y88.544 E.01475
G1 X124.064 Y77.241 E.55116
G1 X123.793 Y76.914 E.01465
M73 P8 R6
G1 X112.442 Y88.265 E.55347
G1 X112.13 Y87.978 E.0146
G1 X123.497 Y76.611 E.55425
G1 X123.195 Y76.315 E.01459
G1 X111.843 Y87.667 E.55351
G1 X111.564 Y87.348 E.01462
G1 X122.868 Y76.044 E.55118
G1 X122.533 Y75.78 E.01469
G1 X111.308 Y87.005 E.54736
G1 X111.061 Y86.654 E.01481
G1 X122.174 Y75.541 E.54185
G1 X121.806 Y75.31 E.01497
G1 X110.838 Y86.278 E.53477
G1 X110.625 Y85.893 E.01518
G1 X121.412 Y75.106 E.52597
G1 X121.007 Y74.912 E.01547
G1 X110.44 Y85.48 E.51527
G1 X110.262 Y85.059 E.01575
G1 X120.577 Y74.744 E.50295
G1 X120.341 Y74.652 E.00874
G1 X120.129 Y74.594 E.00758
G1 X110.12 Y84.603 E.48804
G1 X109.987 Y84.138 E.01668
G1 X119.659 Y74.466 E.47161
G1 X119.155 Y74.371 E.01767
G1 X109.892 Y83.634 E.45168
G1 X109.839 Y83.358 E.0097
G1 X109.819 Y83.108 E.00864
G1 X118.637 Y74.291 E.42993
G1 X118.071 Y74.258 E.01954
G1 X109.775 Y82.554 E.4045
G1 X109.786 Y81.945 E.02101
G1 X117.468 Y74.263 E.37456
G1 X116.82 Y74.312 E.0224
G1 X109.842 Y81.291 E.34025
G1 X109.908 Y80.799 E.01709
G1 X109.964 Y80.57 E.00812
G1 X116.106 Y74.428 E.29949
G1 X115.282 Y74.654 E.02944
G1 X110.191 Y79.744 E.24823
G1 X110.401 Y79.162 E.02135
G1 X110.615 Y78.722 E.01686
G1 X114.249 Y75.089 E.17717
G1 X113.729 Y75.358 E.02018
G1 X113.016 Y75.832 E.02953
G1 X112.38 Y76.359 E.02847
G1 X110.908 Y77.831 E.07179
; stop printing object LoadCellSpacer.STL id:2134206714768 copy 0
;LAYER_CHANGE
;Z:0.6
;HEIGHT:0.2
;BEFORE_LAYER_CHANGE
;0.6
G92 E0

G1 E-1.03333 F1800
;WIPE_START
G1 F10800
M73 P9 R6
G1 X111.615 Y77.124 E-.16667
;WIPE_END
;_SET_FAN_SPEED_CHANGING_LAYER
; printing object LoadCellSpacer.STL id:2134206714768 copy 0
M205 X8 Y8
G1 Z.8 F9000
G1 X124.48 Y77.202 Z.8
G1 Z.6
G1 E1.2 F1800
M204 P2000
M205 X10 Y10
;TYPE:Inner wall
;WIDTH:0.449999
G1 F4953
G1 X124.685 Y77.464 E.01104
G1 X125.159 Y78.221 E.02965
G1 X125.55 Y79.025 E.02965
G1 X125.822 Y79.779 E.02657
G1 X126.066 Y80.737 E.03281
G1 X126.128 Y81.198 E.01542
G1 X126.196 Y82.046 E.02823
G1 X126.208 Y82.514 E.01552
G1 X126.137 Y83.405 E.02965
G1 X125.971 Y84.283 E.02965
G1 X125.713 Y85.139 E.02965
G1 X125.365 Y85.962 E.02965
G1 X124.932 Y86.744 E.02965
G1 X124.419 Y87.475 E.02965
G1 X123.83 Y88.148 E.02965
G1 X123.242 Y88.691 E.02657
G1 X122.453 Y89.289 E.03281
G1 X121.686 Y89.741 E.02955
G1 X120.872 Y90.111 E.02965
G1 X120.023 Y90.391 E.02965
G1 X119.15 Y90.58 E.02965
G1 X118.261 Y90.675 E.02966
G1 X117.367 Y90.675 E.02963
G1 X116.478 Y90.58 E.02966
G1 X115.605 Y90.391 E.02965
G1 X114.756 Y90.111 E.02965
G1 X113.942 Y89.741 E.02965
G1 X113.172 Y89.287 E.02965
G1 X112.454 Y88.754 E.02965
G1 X111.798 Y88.148 E.02965
G1 X111.209 Y87.475 E.02965
G1 X110.695 Y86.744 E.02965
G1 X110.262 Y85.962 E.02965
G1 X109.915 Y85.139 E.02965
G1 X109.657 Y84.283 E.02965
